X:1
T:French Suite VI Courante
T:BWV 817
T:J. S. Bach
%%score { ( 1 3 ) | 2 }
L:1/8
M:3/4
K:E
V:1 treble nm="Harp"
V:3 treble 
V:2 bass 
V:1
 e/ | e z z/ B/c/d/ e/f/g/e/ | ba/g/ f/e/d/c/ B/ z/ z | z/ b/g/e/ c/a/f/d/ B/a/g/f/ | %4
 g/e/d/c/ B/A/G/F/ E/ z/ z | z/ g/e/c/ ^A/e/c/A/ F/e/d/c/ | d/f/d/B/ A/c/A/F/ D/c/B/A/ | %7
 G z z/ F/G/A/ B/c/d/B/ | e z z/ d/e/f/ g/^a/b/g/ | ^a/f/c/ z/ z/ c/^A/F/ z2 | z B/d/- [df] z z2 | %11
 z B/d/- [de] z z2 | z/ F/c/e/ d/c/B/d/ G/c/^A/E/ | D/B/F/D/ B,/F/G/^A/ B/F/B/E/ | %14
 D/B/F/D/ B,/F/G/^A/ B/F/B/E/ | D/F/B/d/ E/d/c/B/ E/c/B/^A/ | B z z/ C/D/F/- [FB]3/2 e/ | %17
 e z z/ B/c/d/ e/f/g/e/ | ba/g/ f/e/d/c/ B/ z/ z | z/ b/g/e/ c/a/f/d/ B/a/g/f/ | %20
 g/e/d/c/ B/A/G/F/ E/ z/ z | z/ g/e/c/ ^A/e/c/A/ F/e/d/c/ | d/f/d/B/ A/c/A/F/ D/c/B/A/ | %23
 G z z/ F/G/A/ B/c/d/B/ | e z z/ d/e/f/ g/^a/b/g/ | ^a/f/c/ z/ z/ c/^A/F/ z2 | z B/d/- [df] z z2 | %27
 z B/d/- [de] z z2 | z/ F/c/e/ d/c/B/d/ G/c/^A/E/ | D/B/F/D/ B,/F/G/^A/ B/F/B/E/ | %30
 D/B/F/D/ B,/F/G/^A/ B/F/B/E/ | D/F/B/d/ E/d/c/B/ E/c/B/^A/ | B z z/ C/D/F/- [FB]3/2 f/ | %33
 f2- f z z2 | z2 z/ ^B/d/f/ e/d/c/d/ | e/G/A/e/ d/A/G/d/ c/G/F/c/ | ^B2- B z z2 | %37
 z/ =d/B/G/ ^E/B/G/E/ C/B/A/G/ | A/F/^E/F/ ^B/F/c/F/ d/F/G/D/ | E/c/A/F/ D/A/F/D/ =C/A/G/F/ | %40
 E/D/C/=C/ ^C/D/E/F/ G/A/B/A/ | B z z/ F/G/A/ B/c/d/B/ | c2 z A ce | %43
 g/4a/4b/4a/4b/4a/4b/4a/4 b/4a/4b/4a/4b/4a/4b/4a/4 b/4a/4b/4a/4b/4a/4b/4a/4 | %44
 b/4a/4B/f/a/ g/f/e/g/ c/f/d/A/ | G/e/B/G/ E/B/c/d/ e/B/e/A/ | G/e/B/G/ E/B/c/d/ e/B/e/A/ | %47
 G/B/e/g/ A/g/f/e/ A/f/e/d/ | e z z/ F/G/B/- [Be]3/2 f/ | f2- f z z2 | z2 z/ ^B/d/f/ e/d/c/d/ | %51
 e/G/A/e/ d/A/G/d/ c/G/F/c/ | ^B2- B z z2 | z/ =d/B/G/ ^E/B/G/E/ C/B/A/G/ | %54
 A/F/^E/F/ ^B/F/c/F/ d/F/G/D/ | E/c/A/F/ D/A/F/D/ =C/A/G/F/ | E/D/C/=C/ ^C/D/E/F/ G/A/B/A/ | %57
 B z z/ F/G/A/ B/c/d/B/ | c2 z A ce | %59
 g/4a/4b/4a/4b/4a/4b/4a/4 b/4a/4b/4a/4b/4a/4b/4a/4 b/4a/4b/4a/4b/4a/4b/4a/4 | %60
 b/4a/4B/f/a/ g/f/e/g/ c/f/d/A/ | G/e/B/G/ E/B/c/d/ e/B/e/A/ | G/e/B/G/ E/B/c/d/ e/B/e/A/ | %63
 G/B/e/g/ A/g/f/e/ A/f/e/d/ | e z z/ F/G/B/- !fermata![Be]3/2 z/ |] %65
V:2
 z/ | z/[I:staff -1] E/F/G/ A/[I:staff +1] z/ z z2 | %2
[I:staff -1] D[I:staff +1] z z2 z/[I:staff -1] A/G/F/ | GE AA, DB, | %4
 E[I:staff +1] z z2 z/ D/C/B,/ | CD CB, ^A,F, | B,B,, C,F, B,,D, | %7
 E,/B,/C/D/ E/ z/ z z[I:staff -1] D | C/G/A/B/ c/[I:staff +1] z/ z z[I:staff -1] C | %9
 F[I:staff +1] z/[I:staff -1] ^A/ F[I:staff +1] z[I:staff -1] E/G/F/E/ | %10
 D/F/B[I:staff +1] z/ E/D/C/ B,/A,/G,/A,/ | G, z z/ A,/G,/F,/ E,/D,/C,/D,/ | ^A,,F,, B,,D, E,F, | %13
 B,,C, D,E, D,C, | B,,C, D,E, D,C, | B,,D, G,E, F,F,, | z/ B,,/D,/F,/ B,2- B,3/2 z/ | %17
 z/[I:staff -1] E/F/G/ A/[I:staff +1] z/ z z2 | %18
[I:staff -1] D[I:staff +1] z z2 z/[I:staff -1] A/G/F/ | GE AA, DB, | %20
 E[I:staff +1] z z2 z/ D/C/B,/ | CD CB, ^A,F, | B,B,, C,F, B,,D, | %23
 E,/B,/C/D/ E/ z/ z z[I:staff -1] D | C/G/A/B/ c/[I:staff +1] z/ z z[I:staff -1] C | %25
 F[I:staff +1] z/[I:staff -1] ^A/ F[I:staff +1] z[I:staff -1] E/G/F/E/ | %26
 D/F/B[I:staff +1] z/ E/D/C/ B,/A,/G,/A,/ | G, z z/ A,/G,/F,/ E,/D,/C,/D,/ | ^A,,F,, B,,D, E,F, | %29
 B,,C, D,E, D,C, | B,,C, D,E, D,C, | B,,D, G,E, F,F,, | z/ B,,/D,/F,/ B,2- B,3/2 z/ | %33
 z2 z/[I:staff -1] B/A/G/ F/E/D/F/ | ^B,2- B,[I:staff +1] z z2 | CC, B,,B, A,A,, | %36
 G,, z z/ C/^B,/^A,/ G,/F,/^E,/F,/ | ^E,G, CB, CC, | F,A, D,F, ^B,,^B, | CF, A,D, G,G,, | %40
 C,C,, z2 z2 | G,/B,/C/D/ E/ z/ z z2 | z/ A/E/C/ A,/E/C/A,/ G,/B,/A,/G,/ | %43
 F,/F/C/A,/ F,/C/A,/F,/ E,/G,/F,/E,/ | D,B,, E,G, A,B, | CB,/A,/ G,A, G,F, | E,F, G,A, G,F, | %47
 E,G, CA, B,B,, | z/ E,/G,/B,/ E2- E3/2 z/ | z2 z/[I:staff -1] B/A/G/ F/E/D/F/ | %50
 ^B,2- B,[I:staff +1] z z2 | CC, B,,B, A,A,, | G,, z z/ C/^B,/^A,/ G,/F,/^E,/F,/ | ^E,G, CB, CC, | %54
 F,A, D,F, ^B,,^B, | CF, A,D, G,G,, | C,C,, z2 z2 | G,/B,/C/D/ E/ z/ z z2 | %58
 z/ A/E/C/ A,/E/C/A,/ G,/B,/A,/G,/ | F,/F/C/A,/ F,/C/A,/F,/ E,/G,/F,/E,/ | D,B,, E,G, A,B, | %61
 CB,/A,/ G,A, G,F, | E,F, G,A, G,F, | E,G, CA, B,B,, | z/ E,/G,/B,/ E2- !fermata!E3/2 z/ |] %65
V:3
 x/ | x6 | x6 | x6 | x6 | x6 | x6 | x6 | x6 | x6 | D B- B z z2 | %11
[I:staff +1] G,/E/[I:staff -1] B- B z z2 | x6 | x6 | x6 | x6 | z2 z D- D3/2 z/ | x6 | x6 | x6 | %20
 x6 | x6 | x6 | x6 | x6 | x6 | D B- B z z2 |[I:staff +1] G,/E/[I:staff -1] B- B z z2 | x6 | x6 | %30
 x6 | x6 | z2 z D- D3/2 x/ | z/ e/d/c/ d z z2 | ^B,/D/F/A/ G z z2 | x6 | z/ G/F/E/ D z z2 | x6 | %38
 x6 | x6 | x6 | x6 | x6 | x6 | x6 | x6 | x6 | x6 | z2 z G- G3/2 x/ | z/ e/d/c/ d z z2 | %50
 ^B,/D/F/A/ G z z2 | x6 | z/ G/F/E/ D z z2 | x6 | x6 | x6 | x6 | x6 | x6 | x6 | x6 | x6 | x6 | x6 | %64
 z2 z G- G3/2 x/ |] %65

